static/images/nav-main-logo-4x3.svg

<svg width="400" height="300" fill="none" xmlns="http://www.w3.org/2000/svg"><g clip-path="url(#clip0)"><path fill="#3066FF" d="M-3-3h209v209H-3z"/><path d="M406-91H-6v397h412V-91z" fill="#FBF5F1"/><path d="M406 76.444c-29.254 12.297-65.072 11.212-96.765 9.223l-200.28 9.041C68.261 91.453 33.569 67.945-6 58v249h412V76.444z" fill="#FFDAD8"/><path d="M405.812 141.31c-9.001 4.718-18.565 6.17-28.691 4.355-12.19-2.359-23.066-9.618-35.443-11.251-15.378-2.178-30.38 4.9-45.757 5.988-16.503 1.271-33.005-3.811-49.508-3.629-15.565.181-30.567 5.081-45.757 7.985-20.065 3.811-40.881 4.174-60.946.907-11.252-1.814-22.504-4.718-33.943-5.444-12.752-.726-25.504 1.452-38.256 2.359-16.69 1.271-56.633-5.444-73.511-5.444V307h412l-.188-165.69z" fill="#FFBFA8"/><path d="M-6 177.843V307h412V174.406c-25.316 8.502-53.446 5.427-79.887.724-26.254-4.703-53.071-10.854-79.7-8.14-18.565 1.99-36.755 8.14-55.508 8.321-17.628.181-34.88-4.884-52.321-7.598-22.503-3.617-45.569-3.617-67.885 0C47.633 171.512 17.254 179.11-6 177.843z" fill="#FFDFAF"/><path d="M406 217.804c-21.191 0-42.944-5.472-63.947-8.937-34.88-5.655-70.698-5.108-105.391 1.641-19.503 3.831-38.631 9.485-58.322 12.586a224.847 224.847 0 01-64.509.547c-18.753-2.736-37.131-7.661-55.884-10.761-18.753-2.919-45.944-3.648-63.947 2.188V307h412v-89.196z" fill="#FEF0A5"/><path d="M412.314-59.24c-1.917 3.57-9.851 14.678-14.678 21.091-4.892 6.48-9.19 13.488-14.281 19.9-8.793 10.976-18.975 21.951-28.628 32.067-9.586 10.05-19.967 20.231-30.281 29.818-8.595 8-17.719 8.595-28.562 11.24-10.975 2.644-22.611 4.628-33.851 7.14-8.727 1.918-19.768 9.918-30.479 14.347-10.314 4.232-23.14 6.017-34.116 8.199-5.421 1.058-15.008-1.389-16.793 1.058-4.364 5.95 5.025 11.504 11.372 10.842 6.612-.66 11.769.662 22.215-1.057 6.479-1.058 16.132-7.538 25.52-5.95 6.48 1.057 14.083.528 24.992-2.183-1.521 2.91-4.892 5.554-8.529 8.33-2.116 1.588-7.603 5.356-10.975 8.53-9.785 9.256-14.678 14.677-9.785 18.975 3.504 3.107 14.678 1.653 24.992-8.661 6.545-6.744 22.677-14.678 32.991-14.678 17.124 0 26.248-5.553 40.86-15.47 14.942-10.183 26.776-24.331 41.785-34.447 8.264-5.554 15.272-12.628 23.603-18.182 7.603-5.09 6.479-3.768 12.628-9.19V-59.24z" fill="#fff"/><path d="M187.082 201.451h27.017v7.382h-9.301v26.722h-8.267v-26.722h-9.301v-7.382h-.148zm71.752 9.891c.886-2.214 2.214-4.133 3.838-5.61 1.624-1.624 3.543-2.805 5.906-3.691 2.214-.885 4.576-1.328 7.234-1.328 2.657 0 5.019.443 7.381 1.328 2.215.886 4.134 2.067 5.906 3.691 1.624 1.624 2.953 3.543 3.838 5.61.886 2.215 1.329 4.577 1.329 7.234 0 2.658-.443 5.02-1.329 7.235-.885 2.214-2.214 4.133-3.838 5.757-1.624 1.624-3.543 2.953-5.906 3.839-2.214.886-4.724 1.328-7.381 1.328-2.658 0-5.167-.442-7.382-1.328-2.214-.886-4.134-2.215-5.905-3.839-1.624-1.624-2.953-3.543-3.839-5.757-.886-2.215-1.329-4.577-1.329-7.235.148-2.657.591-5.019 1.477-7.234zm8.563 12.549c.738 1.477 1.919 2.805 3.395 3.544 1.477.885 3.101 1.328 5.02 1.328 1.919 0 3.543-.443 5.019-1.328 1.477-.886 2.51-2.067 3.396-3.544.886-1.476 1.181-3.395 1.181-5.315 0-2.066-.443-3.838-1.181-5.314-.738-1.477-1.919-2.805-3.396-3.544-1.476-.885-3.1-1.328-5.167-1.328-1.919 0-3.543.443-5.019 1.328-1.477.886-2.51 2.067-3.396 3.544-.738 1.476-1.181 3.395-1.181 5.314.147 2.067.59 3.839 1.329 5.315zm-105.857 4.134c1.329 1.033 2.805 1.476 4.577 1.476 2.805 0 4.134-1.033 4.134-3.248 0-1.033-.296-1.771-.886-2.362-.591-.59-1.477-1.033-2.51-1.476-1.034-.443-2.215-.886-3.543-1.476-.886-.296-1.772-.739-2.805-1.329-1.034-.591-2.067-1.181-3.101-2.067-1.033-.886-1.771-1.772-2.362-2.953-.59-1.181-.886-2.657-.886-4.281 0-1.919.443-3.543 1.477-5.02 1.033-1.476 2.509-2.509 4.281-3.395 1.772-.738 3.839-1.181 6.201-1.181 2.51 0 4.576.443 6.2 1.181 1.624.738 3.101 1.771 4.134 2.952 1.034 1.181 1.772 2.363 2.215 3.544l-6.201 3.543c-.738-1.329-1.624-2.215-2.51-2.953-1.033-.738-2.067-1.033-3.395-1.033-1.181 0-2.215.295-2.805.738-.739.443-1.034 1.181-1.034 2.067 0 .738.295 1.476 1.034 2.067.738.59 1.771 1.033 2.952 1.476 1.181.443 2.51.886 3.839 1.476 1.624.591 3.1 1.329 4.429 2.215a9.729 9.729 0 013.1 3.395c.738 1.329 1.181 2.953 1.181 5.02 0 3.396-1.181 6.053-3.543 7.972-2.362 1.772-5.462 2.805-9.449 2.805-2.067 0-3.986-.443-5.905-1.181a14.81 14.81 0 01-4.872-3.248c-1.329-1.328-2.51-2.952-3.1-4.872l5.757-3.986c.886 1.624 2.067 3.101 3.396 4.134zm-54.329-16.683c.886-2.214 2.214-4.133 3.838-5.61 1.624-1.624 3.543-2.805 5.906-3.691 2.214-.885 4.576-1.328 7.234-1.328 2.657 0 5.019.443 7.381 1.328 2.215.886 4.134 2.067 5.906 3.691 1.624 1.624 2.952 3.543 3.838 5.61.886 2.215 1.329 4.577 1.329 7.234 0 2.658-.443 5.02-1.329 7.235-.886 2.214-2.214 4.133-3.838 5.757-1.624 1.624-3.543 2.953-5.906 3.839-2.214.886-4.724 1.328-7.381 1.328-2.658 0-5.168-.442-7.382-1.328-2.215-.886-4.134-2.215-5.905-3.839-1.624-1.624-2.953-3.543-3.839-5.757-.886-2.215-1.329-4.577-1.329-7.235.148-2.657.591-5.019 1.477-7.234zm8.563 12.549c.738 1.477 1.919 2.805 3.395 3.544 1.476.885 3.1 1.328 5.02 1.328 1.919 0 3.543-.443 5.019-1.328 1.477-.886 2.51-2.067 3.396-3.544.886-1.476 1.181-3.395 1.181-5.315 0-2.066-.443-3.838-1.181-5.314-.738-1.477-1.919-2.805-3.396-3.544-1.476-.885-3.1-1.328-5.167-1.328-1.919 0-3.543.443-5.02 1.328-1.476.886-2.509 2.067-3.395 3.544-.738 1.476-1.181 3.395-1.181 5.314.147 2.067.59 3.839 1.329 5.315zm116.042 5.02h14.763v6.791h-22.735v-34.251h22.735v6.791h-14.763v6.053h13.878v6.644h-13.878v7.972zm2.51-31.446l-4.134-2.067 7.382-7.825 5.61 2.658-8.858 7.234zm17.857-65.992h6.643l-16.682 36.022-16.683-36.022h6.644l10.039 24.064 10.039-24.064zm-56.097 34.251h-5.758v-34.251h10.482c2.51 0 4.577.443 6.496 1.328 1.772.886 3.248 2.067 4.282 3.691 1.033 1.624 1.476 3.396 1.476 5.61 0 2.51-.738 4.577-2.067 6.349-1.329 1.771-3.248 2.952-5.61 3.69l9.596 13.583h-6.939l-8.71-12.992h-3.543v12.992h.295zm4.577-17.716c1.919 0 3.543-.443 4.724-1.477 1.181-1.033 1.772-2.362 1.772-4.281 0-1.772-.591-3.248-1.772-4.281-1.181-1.034-2.805-1.477-4.724-1.477h-4.577v11.516h4.577zm-42.225 12.549h15.059v5.019h-20.669v-34.103h20.669v5.019h-15.059v8.268h14.173v5.019h-14.173v10.778zm-45.915-29.084v13.139h17.126v-13.139h5.758v34.103h-5.758v-15.649h-17.126v15.649h-5.757v-34.103h5.757zm165.644 29.083h15.058v5.02h-20.668v-34.104h20.668v5.02h-15.058v8.268h14.173v5.019h-14.173v10.777zm2.805-32.774l-2.953-1.772 7.382-7.825 4.429 2.215-8.858 7.382zM109.721 95.747h15.649v2.51h-18.454V64.153h18.454v2.51h-15.649v11.663h14.764v2.51h-14.764v14.91zm156.491 2.507h-2.952l15.058-35.432 15.059 35.432h-2.953L285.7 86.74h-14.763l-4.725 11.515zm18.307-14.025l-6.201-15.206-6.348 15.206h12.549zm-74.701 14.025h-2.658l3.986-35.432 13.73 26.279 13.73-26.279 3.986 35.432h-2.657l-2.953-26.87-11.958 22.884-11.958-22.883-3.248 26.87zm-57.87 0h-2.657l3.986-35.432 13.73 26.279 13.73-26.279 3.986 35.432h-2.657l-2.953-26.87-11.958 22.884-11.959-22.883-3.248 26.87z" fill="#4F4C6E"/></g><defs><clipPath id="clip0"><path fill="#fff" d="M0 0h400v300H0z"/></clipPath></defs></svg>

<svg width="400" height="300" viewBox="0 0 400 300" fill="none" xmlns="http://www.w3.org/2000/svg">
<g clip-path="url(#clip0)">
<rect x="-3" y="-3" width="209" height="209" fill="#3066FF"/>
<path d="M406 -91H-6V306H406V-91Z" fill="#FBF5F1"/>
<path d="M406 76.4444C376.746 88.7407 340.928 87.6558 309.235 85.6667L108.955 94.7081C68.2613 91.4532 33.5685 67.9455 -6 58V307H406V76.4444Z" fill="#FFDAD8"/>
<path d="M405.812 141.31C396.811 146.028 387.247 147.48 377.121 145.665C364.931 143.306 354.055 136.047 341.678 134.414C326.3 132.236 311.298 139.314 295.921 140.402C279.418 141.673 262.916 136.591 246.413 136.773C230.848 136.954 215.846 141.854 200.656 144.758C180.591 148.569 159.775 148.932 139.71 145.665C128.458 143.851 117.206 140.947 105.767 140.221C93.015 139.495 80.2631 141.673 67.5112 142.58C50.8211 143.851 10.8776 137.136 -6 137.136V307H406L405.812 141.31Z" fill="#FFBFA8"/>
<path d="M-6 177.843V307H406V174.406C380.684 182.908 352.554 179.833 326.113 175.13C299.859 170.427 273.042 164.276 246.413 166.99C227.848 168.98 209.658 175.13 190.905 175.311C173.277 175.492 156.025 170.427 138.584 167.713C116.081 164.096 93.015 164.096 70.6991 167.713C47.6331 171.512 17.2535 179.11 -6 177.843Z" fill="#FFDFAF"/>
<path d="M406 217.804C384.809 217.804 363.056 212.332 342.053 208.867C307.173 203.212 271.355 203.759 236.662 210.508C217.159 214.339 198.031 219.993 178.34 223.094C156.962 226.377 135.209 226.56 113.831 223.641C95.0778 220.905 76.7 215.98 57.9472 212.88C39.1944 209.961 12.0027 209.232 -6 215.068V307H406V217.804Z" fill="#FEF0A5"/>
<path d="M412.314 -59.2397C410.397 -55.6695 402.463 -44.5621 397.636 -38.1489C392.744 -31.6695 388.446 -24.6613 383.355 -18.2481C374.562 -7.27289 364.38 3.7023 354.727 13.818C345.141 23.8675 334.76 34.0493 324.446 43.6361C315.851 51.6361 306.727 52.2311 295.884 54.8757C284.909 57.5204 273.273 59.5038 262.033 62.0162C253.306 63.9336 242.265 71.9336 231.554 76.3633C221.24 80.5947 208.414 82.3798 197.438 84.5616C192.017 85.6195 182.43 83.1732 180.645 85.6195C176.281 91.5699 185.67 97.1236 192.017 96.4624C198.629 95.8013 203.786 97.1236 214.232 95.4046C220.711 94.3467 230.364 87.8674 239.752 89.4542C246.232 90.512 253.835 89.9831 264.744 87.2724C263.223 90.1815 259.852 92.8261 256.215 95.6029C254.099 97.1897 248.612 100.958 245.24 104.132C235.455 113.388 230.562 118.809 235.455 123.107C238.959 126.214 250.133 124.76 260.447 114.446C266.992 107.702 283.124 99.7682 293.438 99.7682C310.562 99.7682 319.686 94.2145 334.298 84.2972C349.24 74.1154 361.074 59.9666 376.083 49.851C384.347 44.2973 391.355 37.2229 399.686 31.6692C407.289 26.5783 406.165 27.9006 412.314 22.4791V-59.2397Z" fill="white"/>
<path d="M187.082 201.451H214.099V208.833H204.798V235.555H196.531V208.833H187.23V201.451H187.082Z" fill="#4F4C6E"/>
<path d="M258.834 211.342C259.72 209.128 261.048 207.209 262.672 205.732C264.296 204.108 266.215 202.927 268.578 202.041C270.792 201.156 273.154 200.713 275.812 200.713C278.469 200.713 280.831 201.156 283.193 202.041C285.408 202.927 287.327 204.108 289.099 205.732C290.723 207.356 292.052 209.275 292.937 211.342C293.823 213.557 294.266 215.919 294.266 218.576C294.266 221.234 293.823 223.596 292.937 225.811C292.052 228.025 290.723 229.944 289.099 231.568C287.475 233.192 285.556 234.521 283.193 235.407C280.979 236.293 278.469 236.735 275.812 236.735C273.154 236.735 270.645 236.293 268.43 235.407C266.216 234.521 264.296 233.192 262.525 231.568C260.901 229.944 259.572 228.025 258.686 225.811C257.8 223.596 257.357 221.234 257.357 218.576C257.505 215.919 257.948 213.557 258.834 211.342ZM267.397 223.891C268.135 225.368 269.316 226.696 270.792 227.435C272.269 228.32 273.893 228.763 275.812 228.763C277.731 228.763 279.355 228.32 280.831 227.435C282.308 226.549 283.341 225.368 284.227 223.891C285.113 222.415 285.408 220.496 285.408 218.576C285.408 216.51 284.965 214.738 284.227 213.262C283.489 211.785 282.308 210.457 280.831 209.718C279.355 208.833 277.731 208.39 275.664 208.39C273.745 208.39 272.121 208.833 270.645 209.718C269.168 210.604 268.135 211.785 267.249 213.262C266.511 214.738 266.068 216.657 266.068 218.576C266.215 220.643 266.658 222.415 267.397 223.891Z" fill="#4F4C6E"/>
<path d="M161.54 228.025C162.869 229.058 164.345 229.501 166.117 229.501C168.922 229.501 170.251 228.468 170.251 226.253C170.251 225.22 169.955 224.482 169.365 223.891C168.774 223.301 167.888 222.858 166.855 222.415C165.821 221.972 164.64 221.529 163.312 220.939C162.426 220.643 161.54 220.2 160.507 219.61C159.473 219.019 158.44 218.429 157.406 217.543C156.373 216.657 155.635 215.771 155.044 214.59C154.454 213.409 154.158 211.933 154.158 210.309C154.158 208.39 154.601 206.766 155.635 205.289C156.668 203.813 158.144 202.78 159.916 201.894C161.688 201.156 163.755 200.713 166.117 200.713C168.627 200.713 170.693 201.156 172.317 201.894C173.941 202.632 175.418 203.665 176.451 204.846C177.485 206.027 178.223 207.209 178.666 208.39L172.465 211.933C171.727 210.604 170.841 209.718 169.955 208.98C168.922 208.242 167.888 207.947 166.56 207.947C165.379 207.947 164.345 208.242 163.755 208.685C163.016 209.128 162.721 209.866 162.721 210.752C162.721 211.49 163.016 212.228 163.755 212.819C164.493 213.409 165.526 213.852 166.707 214.295C167.888 214.738 169.217 215.181 170.546 215.771C172.17 216.362 173.646 217.1 174.975 217.986C176.304 218.872 177.337 220.053 178.075 221.381C178.813 222.71 179.256 224.334 179.256 226.401C179.256 229.797 178.075 232.454 175.713 234.373C173.351 236.145 170.251 237.178 166.264 237.178C164.197 237.178 162.278 236.735 160.359 235.997C158.587 235.259 156.963 234.226 155.487 232.749C154.158 231.421 152.977 229.797 152.387 227.877L158.144 223.891C159.03 225.515 160.211 226.992 161.54 228.025Z" fill="#4F4C6E"/>
<path d="M107.211 211.342C108.097 209.128 109.425 207.209 111.049 205.732C112.673 204.108 114.592 202.927 116.955 202.041C119.169 201.156 121.531 200.713 124.189 200.713C126.846 200.713 129.208 201.156 131.57 202.041C133.785 202.927 135.704 204.108 137.476 205.732C139.1 207.356 140.428 209.275 141.314 211.342C142.2 213.557 142.643 215.919 142.643 218.576C142.643 221.234 142.2 223.596 141.314 225.811C140.428 228.025 139.1 229.944 137.476 231.568C135.852 233.192 133.933 234.521 131.57 235.407C129.356 236.293 126.846 236.735 124.189 236.735C121.531 236.735 119.021 236.293 116.807 235.407C114.592 234.521 112.673 233.192 110.902 231.568C109.278 229.944 107.949 228.025 107.063 225.811C106.177 223.596 105.734 221.234 105.734 218.576C105.882 215.919 106.325 213.557 107.211 211.342ZM115.774 223.891C116.512 225.368 117.693 226.696 119.169 227.435C120.645 228.32 122.269 228.763 124.189 228.763C126.108 228.763 127.732 228.32 129.208 227.435C130.685 226.549 131.718 225.368 132.604 223.891C133.49 222.415 133.785 220.496 133.785 218.576C133.785 216.51 133.342 214.738 132.604 213.262C131.866 211.785 130.685 210.457 129.208 209.718C127.732 208.833 126.108 208.39 124.041 208.39C122.122 208.39 120.498 208.833 119.021 209.718C117.545 210.604 116.512 211.785 115.626 213.262C114.888 214.738 114.445 216.657 114.445 218.576C114.592 220.643 115.035 222.415 115.774 223.891Z" fill="#4F4C6E"/>
<path d="M231.816 228.911H246.579V235.702H231.816H229.306H223.844V201.451H229.306H231.816H246.579V208.242H231.816V214.295H245.694V220.939H231.816V228.911ZM234.326 197.465L230.192 195.398L237.574 187.573L243.184 190.231L234.326 197.465Z" fill="#4F4C6E"/>
<path d="M252.183 131.473H258.826L242.144 167.495L225.461 131.473H232.105L242.144 155.537L252.183 131.473Z" fill="#4F4C6E"/>
<path d="M196.086 165.724H190.328V131.473H193.724H196.086H200.81C203.32 131.473 205.387 131.916 207.306 132.801C209.078 133.687 210.554 134.868 211.588 136.492C212.621 138.116 213.064 139.888 213.064 142.102C213.064 144.612 212.326 146.679 210.997 148.451C209.668 150.222 207.749 151.403 205.387 152.141L214.983 165.724H208.044L199.334 152.732H195.791V165.724H196.086ZM200.663 148.008C202.582 148.008 204.206 147.565 205.387 146.531C206.568 145.498 207.159 144.169 207.159 142.25C207.159 140.478 206.568 139.002 205.387 137.969C204.206 136.935 202.582 136.492 200.663 136.492H196.086V148.008H200.663V148.008Z" fill="#4F4C6E"/>
<path d="M158.438 160.557H173.497V165.576H158.438H156.371H152.828V131.473H156.371H158.438H173.497V136.492H158.438V144.76H172.611V149.779H158.438V160.557Z" fill="#4F4C6E"/>
<path d="M112.523 131.473V144.612H129.649V131.473H135.407V165.576H129.649V149.927H112.523V165.576H106.766V131.473H112.523Z" fill="#4F4C6E"/>
<path d="M278.167 160.556H293.225V165.576H278.167H276.1H272.557V131.472H276.1H278.167H293.225V136.492H278.167V144.76H292.34V149.779H278.167V160.556ZM280.972 127.782L278.019 126.01L285.401 118.185L289.83 120.4L280.972 127.782Z" fill="#4F4C6E"/>
<path d="M109.721 95.7469H125.37V98.2567H109.721H108.392H106.916V64.1531H108.392H109.721H125.37V66.6629H109.721V78.326H124.485V80.8358H109.721V95.7469Z" fill="#4F4C6E"/>
<path d="M266.212 98.2543H263.26L278.318 62.822L293.377 98.2543H290.424L285.7 86.7388H270.937L266.212 98.2543ZM284.519 84.229L278.318 69.0227L271.97 84.229H284.519Z" fill="#4F4C6E"/>
<path d="M209.818 98.2543H207.16L211.146 62.822L224.876 89.101L238.606 62.822L242.592 98.2543H239.935L236.982 71.3848L225.024 94.2682L213.066 71.3848L209.818 98.2543Z" fill="#4F4C6E"/>
<path d="M151.948 98.2543H149.291L153.277 62.822L167.007 89.101L180.737 62.822L184.723 98.2543H182.066L179.113 71.3848L167.155 94.2682L155.196 71.3848L151.948 98.2543Z" fill="#4F4C6E"/>
</g>
<defs>
<clipPath id="clip0">
<rect width="400" height="300" fill="white"/>
</clipPath>
</defs>
</svg>
